X:0
T:Polly of Plymouth
F:http://vwml.org/record/CJS2/10/635
S:Catherine Lawrence of Merriot, Somerset
Z:Transcribed by Alice Baillie, January 2014
M:3/4
L:1/4
K:F
F | (F> A) c | c2 (A/2G/2) | F2 C | C2 c/2B/2 | 
w:Sweet Poll_ of Ply-mouth_ was my love when_
A2 F | (D/2E/2) F G | (A3 | A2) c | (A/2G/2) F D | B2 A |
w:first from her__ I roam_ How proud__ was I for
(G/2F/2 E) C | c2 f | (c/2B/2 A) G | c2 E | (F3 | F2) | | 
w:sad__ she sigh Her heart__ was rent with woe

